!!!COM: Vivaldi, Antonio Lucio
!!!CDT: 1678/03/04-1741/08/28
!!!OPR: 12 Sonatas for Violin and Basso continuo
!!!OTL: Sonata in C major, op. @{OPS}, no. @{ONM} (@{SCT})
!!!OPS: 2
!!!ONM: 6
!!!OMV: 1. Preludio
!!!SCT: RV 1
!!!SCA: Antonio Vivaldi: Thematisch-systematisches Verzeichnis seiner Werke (Ryom-Verzeichnis)
!!!OMD: Andante
!!!key: C
**kern	**fb	**kern
*part2	*	*part1
*staff2	*	*staff1
*ICklav	*	*ICstr
*Icemba	*	*Ivioln
*I"Basso continuo	*	*I"Violino
*I'bc	*	*I'v
*>[A,A,B,B]	*>[A,A,B,B]	*>[A,A,B,B]
*>norep[A,B]	*>norep[A,B]	*>norep[A,B]
*>A	*>A	*>A
*clefF4	*	*clefG2
*k[]	*	*k[]
*C:	*	*C:
*M3/4	*	*M3/4
*MM84	*	*MM84
=1	=1	=1
2c\	.	4cc\
.	.	4ee\
4B\	6	4gg\
=2	=2	=2
8.A\L	.	4.ccc\
16G\k	.	.
8.A\	.	.
.	.	8gg\
16B\Jk	.	.
4c\	.	8.ee\L
.	.	16cc\Jk
=3	=3	=3
8r	.	8.ff\L
16r	.	.
16F\	.	16aa\k
4G\	.	8.b\
.	.	16aa\k
4GG/	.	8.gg\
.	.	16ff\Jk
=4	=4	=4
4C/	.	8.ee\L
.	.	16dd\Jk
4E\	.	4cc\
4G\	.	4r
=5	=5	=5
4.c\	.	4r
.	.	[2cc\
8G\	.	.
8.E\L	.	.
16C\Jk	.	.
=6	=6	=6
8.F\L	.	4cc\]
16A\k	.	.
8.BB\	.	4G/
16A\k	.	.
8.G\	.	4b\
16F\Jk	.	.
!!LO:LB:g=original
=7	=7	=7
8.E\L	6	4cc\
16D\Jk	.	.
4C/	.	4ee\
4r	.	4gg\
=8	=8	=8
4G\	-	4.bb-X\
4E\	5-r	.
.	.	8cc\
4C/	7-r	8.bb-y\L
.	.	16cc\Jk
=9	=9	=9
2.F\	.	8.aa\L
.	.	16gg\k
.	.	8.ff\
.	.	16ee\k
.	.	8.dd\
.	.	16cc\Jk
=10	=10	=10
4GG/	.	2b\
4BB/	.	.
4D\	.	4r
=11	=11	=11
[2.F\	6	4dd\
.	.	4ff\
.	.	4aa\
=12	=12	=12
2F\]	4 2	4.b\
.	.	8g/
4E\	6	8.cc/L
.	.	16g/Jk
=13	=13	=13
4F\	7 5	8.f/L
.	.	16e/Jk
4G\	4	4.d/T
4GG/	3	.
.	.	8c/
=14	=14	=14
8.C/L	.	2c/
16BB/k	.	.
8.C/	.	.
16D/k	.	.
8.E/	.	8r
.	.	16r
16C/Jk	.	16gg\
!!LO:LB:g=original
=15	=15	=15
8.F/L	.	4aa\
16E/k	.	.
8.D/	.	4f/
16C/k	.	.
8.BB/	.	8r
.	.	16r
16F/Jk	.	16aa\
=16	=16	=16
8.E/L	6	4gg\
16D/k	.	.
8.C/	.	4e/
16BB/k	.	.
8.AA/	.	8r
.	.	16r
16E/Jk	.	16gg\
=17	=17	=17
8.D/L	.	4ff\
16C/k	.	.
8.BB/	.	4G/
16AA/k	.	.
8.GG/	.	8r
.	.	16r
16D/Jk	.	16ff\
=18	=18	=18
4C/	.	8.ee\L
.	.	16dd\k
4r	.	8.cc\
.	.	16b\k
8r	.	8.a\
16r	.	.
16c\	.	16ee\Jk
=19	=19	=19
4d\	.	8.ff\L
.	.	16ee\k
4BB/	.	8.dd\
.	.	16cc\k
8r	.	8.b\
16r	.	.
16d\	.	16ff\Jk
=20	=20	=20
4e\	.	8.gg\L
.	.	16ff\k
4C/	.	8.ee\
.	.	16dd\k
8r	.	8.cc\
16r	.	.
16e\	.	16gg\Jk
!!LO:LB:g=original
=21	=21	=21
4F#X\	6	8.aa\L
.	.	16gg\k
4D\	.	8.ff#X\
.	.	16ee\k
4F#X\	6	8.dd\
.	.	16cc\Jk
=22	=22	=22
4G\	.	8.b\L
.	.	16gg\k
4C/	.	8.a\
.	.	16gg\k
4D\	#	8.d\
.	.	16ff#X\Jk
=23	=23	=23
4GG/	.	8.gg\L
.	.	16ff#X\k
4r	.	8.ee\
.	.	16dd\k
4r	.	8.cc\
.	.	16b\Jk
=24	=24	=24
4F#X\	6	8.aa\L
.	.	16gg\k
4DD/	#	8.ff#X\
.	.	16ee\k
4r	.	8.dd\
.	.	16cc\Jk
=25	=25	=25
4G\	.	8.bb\L
.	.	16aa\k
4EE/	.	8.gg\
.	.	16ff#X\k
4r	.	8.ee\
.	.	16dd\Jk
=26	=26	=26
4A\	.	8.ccc\L
.	.	16bb\k
4FF#X/	6	8.aa\
.	.	16gg\k
4r	.	8.ff#X\
.	.	16ee\Jk
=27	=27	=27
2FF#y/	6	4dd\
.	.	4ff#X\
4r	.	4aa\
!!LO:LB:g=original
=28	=28	=28
4A\	.	4.ccc\
4F#X\	5	.
.	.	8dd\
4D\	7 5 #	8.ccc\L
.	.	16dd\Jk
=29	=29	=29
8.G\L	.	8.bb\L
16c\Jk	.	16gg\Jk
4d\	5 4	4.ff#X\t
4D\	#	.
.	.	8gg\
=30	=30	=30
2.GG/	.	2.gg\
=31:|!|:	=31:|!|:	=31:|!|:
*>B	*>B	*>B
2G\	.	4g/
.	.	4b\
4F#X\	6	4dd\
=32	=32	=32
8.E\L	.	4.gg\
16D\k	.	.
8.E\	.	.
.	.	8dd\
16F#X\Jk	.	.
4G\	.	8.b/L
.	.	16g/Jk
=33	=33	=33
8r	.	8.cc\L
16r	.	.
16c\	.	16ee\k
4d\	#	8.f#X\
.	.	16ee\k
4D\	.	8.dd\
.	.	16cc\Jk
=34	=34	=34
4G\	.	8.b/L
.	.	16a/Jk
4B\	.	4g/
4d\	.	4r
=35	=35	=35
4.g\	.	4r
.	.	[2gg\
8d\	.	.
8.B\L	.	.
16G\Jk	.	.
!!LO:LB:g=original
=36	=36	=36
8.c\L	.	4gg\]
16e\k	.	.
8.F#X\	6	4d/
16e\k	.	.
8.d\	#	4ff#X\
16c\Jk	.	.
=37	=37	=37
8.B\L	6	4g/
16A\Jk	.	.
4G\	.	4b\
4r	.	4dd\
=38	=38	=38
4D\	n	4.ffn\
4BB/	5nr	.
.	.	8ee\
4GG/	7nr 5	8.ff\L
.	.	16gg\Jk
=39	=39	=39
4C/	.	8.ee\L
.	.	16dd\Jk
4E\	.	4cc\
4G\	.	4r
=40	=40	=40
2B-X\	6 4	4ee\
.	.	4gg\
4G\	6 -	4bb-X\
=41	=41	=41
4A\	#	8.cc#X\L
.	.	16dd\k
4C#X/	6	8.ee\
.	.	16ff\k
4AA/	7 #	8.gg\
.	.	16ee\Jk
=42	=42	=42
2D\	.	8.ff\L
.	.	16ee\k
.	.	8.dd\
.	.	16cc\k
4r	.	8.b-X\
.	.	16a\Jk
=43	=43	=43
4B-X\	6	8.gg\L
.	.	16ff\k
2G\	6 -	8.ee\
.	.	16dd\k
.	.	8.cc#X\
.	.	16bn\Jk
!!LO:LB:g=original
=44	=44	=44
4.F\	.	4.a/
8E\	6#/	8cc#X\
4D\	.	8.dd\L
.	.	16a\Jk
=45	=45	=45
4G\	7 5	8.ff\L
.	.	16dd\Jk
4A\	#	4.cc#X\t
4AA/	.	.
.	.	8dd\
=46	=46	=46
8.d\L	.	2dd\
16e\k	.	.
8.d\	.	.
16c\k	.	.
8.B\	.	4r
16A\Jk	.	.
=47	=47	=47
2.G#X\	6	8.ee\L
.	.	16ff\k
.	.	8.ee\
.	.	16dd\k
.	.	8.ccn\
.	.	16b\Jk
=48	=48	=48
8.A\L	.	4cc\
16B\k	.	.
8.A\	.	4A/
16G\k	.	.
8.F\	.	8r
.	.	16r
16E\Jk	.	16cc\
=49	=49	=49
4F\	6	8.dd\L
.	.	16ee\k
4DD/	.	8.dd\
.	.	16cc\k
8r	.	8.b\
16r	.	.
16F\	.	16a\Jk
=50	=50	=50
8.E\L	#	8.g#X\L
16F#X\k	.	16a\k
8.G#X\	.	8.b\
16A\k	.	16cc\k
8.B\	.	8.dd\
16c\Jk	.	16ee\Jk
!!LO:PB:g=original
=51	=51	=51
[2.d\	.	8.ff\L
.	.	16ee\k
.	.	8.dd\
.	.	16cc\k
.	.	8.b\
.	.	16a\Jk
=52	=52	=52
4d\]	4#| 2	8.gg#X\L
.	.	16ff#X\Jk
8.c\L	6	4ee\
16B\k	.	.
8.c\	.	8r
.	.	16r
16A\Jk	.	16aa\
=53	=53	=53
4B\	7	4aa\
8.B\L	6	4ggn\
16c\k	.	.
8.d\	.	8r
.	.	16r
16e\Jk	.	16gg\
=54	=54	=54
4A\	7	4gg\
8.A\L	6	4ffn\
16B\k	.	.
8.c\	.	8r
.	.	16r
16d\Jk	.	16ff\
=55	=55	=55
4G\	7	4ff\
8.G\L	6	4ee\
16A\k	.	.
8.B\	.	8r
.	.	16r
16c\Jk	.	16ee\
=56	=56	=56
4F\	.	4aa\
4F#X\	6	8.dd\L
.	.	16ee\k
4D\	7 #	8.dd\
.	.	16cc\Jk
=57	=57	=57
4GG/	.	8.b/L
.	.	16a/Jk
4BB/	.	4g/
4D\	.	4r
!!LO:LB:g=original
=58	=58	=58
[2.Fn\	6	4dd\
.	.	4ff\
.	.	4aa\
=59	=59	=59
2F\]	4 2	4.bb\
.	.	8gg\
4E\	6	8.ccc\L
.	.	16gg\Jk
=60	=60	=60
4F\	7 5	8.ff\L
.	.	16ee\Jk
4G\	5 4	4.dd\T
4GG/	3	.
.	.	8cc\
=61	=61	=61
8.C\L	.	4cc\
16D\k	.	.
8.E\	.	4r
16F\k	.	.
8.G\	.	8r
.	.	16r
16E\Jk	.	16gg\
=62	=62	=62
4F\	.	4aa\T
4E\	6	8.gg\L
.	.	16gg\k
8r	.	8.ccc\
16r	.	.
16E\	.	16gg\Jk
=63	=63	=63
4F\	.	4aa\T
4E\	6	8.gg\L
.	.	16gg\k
8r	.	8.ccc\
16r	.	.
16E\	.	16gg\Jk
=64	=64	=64
2F\	.	8.aa\L
.	.	16gg\k
.	.	8.ff\
.	.	16ee\k
4FF/	.	8.dd\
.	.	16cc\Jk
!!LO:LB:g=original
=65	=65	=65
8.GG/L	.	2b\
16AA/k	.	.
8.BB/	.	.
16C/k	.	.
8.D/	.	4r
16E/Jk	.	.
=66	=66	=66
2.F\	6	8.d/L
.	.	16e/k
.	.	8.f/
.	.	16g/k
.	.	8.a/
.	.	16b/Jk
=67	=67	=67
2E\	6	4cc\
.	.	4ee\
4r	.	4gg\
=68	=68	=68
4G\	-	4.bb-X\
4E\	5-r	.
.	.	8cc\
4C/	7-r	8.bb-X\L
.	.	16cc\Jk
=69	=69	=69
2.F\	.	8.aa\L
.	.	16gg\k
.	.	8.ff\
.	.	16ee\k
.	.	8.dd\
.	.	16cc\Jk
=70	=70	=70
4.G\	.	4.bn\
8F\	.	8g/
4E\	6	[4cc\
=71	=71	=71
4F\	6 5	8.cc\L]
.	.	16dd\Jk
4G\	5 4	4.dd\T
4GG/	3	.
.	.	8cc\
=72	=72	=72
2.C/;	.	2.cc\;
=:|!	=:|!	=:|!
*-	*-	*-
!!!SMS: RV 001/ Estienne Roger, Amsterdam [facs.]
!!!ENC: Fran Bennion; rev. 04/21 E. Correia
!!!END: 2004/11/27
!!!ONB: Converted from MuseData with musedata2hum on Sat May 11 12:07:52 2024
!!!YEM: (C) 2004, 2004 Center for Computer Assisted Research in the Humanities.
!!!system-decoration: [(s1,s2)]
!!!URL-info: https://wiki.ccarh.org/wiki/MuseData:_Antonio_Vivaldi#Op._2:_Sonate_a_violino_e_basso_per_il_cembalo
!!!URL-pdf: https://pdf.musedata.org/vivaldi-op02-no06.pdf#page=1 MuseData edition
!!!URL-pdf: http://conquest.imslp.info/files/imglnks/usimg/b/b7/IMSLP99075-PMLP183164-Vivaldi_-_Sonatas_Op2.pdf#page=20 Estienne Roger Amsterdam: Estienne Roger, No.2, n.d.[1711].
!!!URL-youtube: https://www.youtube.com/watch?v=SiijZmW9jKM&t=1504s L'Arte dell'Arco
!!!title: @{OTL}, mov. @{OMV}
!!!filter-chint: chint -mid
!!!EEV: 2024/05/11
!!!source-file: https://bitbucket.org/musedata/vivaldi/src/master/roger/op2/no06/stage2/01/01
!!!source-file: https://bitbucket.org/musedata/vivaldi/src/master/roger/op2/no06/stage2/01/02
